src/icons/idris.svg

<svg viewBox="0 0 200 200" xmlns="http://www.w3.org/2000/svg"><g style="fill:#f44336"><path d="M103.07 189.45c-7.937-2.666-8.004-2.718-9.763-7.517-.974-2.657-2.302-9.039-2.952-14.18-.997-7.897-.931-10.755.422-18.392 2.778-15.674 9.623-27.676 27.672-48.52 20.87-24.103 24.51-32.428 20.238-46.29-3.656-11.866-13.458-22.97-33.613-38.078-12.915-9.68-13.458-10.303-5.013-5.736 22.554 12.196 40.365 27.413 46.375 39.621 4.182 8.495 5.13 17.92 2.664 26.458-2.622 9.076-7.402 17.316-21.141 36.448-18.697 26.035-24.133 38.641-23.165 53.723.411 6.41 1.147 8.82 5.004 16.396 5.204 10.22 5.321 10.114-6.728 6.066zm-16.791-83.413c-4.28-13.575-13.604-22.609-29.213-28.302-4.127-1.505-7.504-2.968-7.504-3.25 0-1.027 18.939.848 22.98 2.274 10.092 3.56 15.043 10.936 15.799 23.537.643 10.726.039 12.409-2.063 5.742zm16.539-21.356C96.771 68.28 86.659 59 69.062 53.7c-9.46-2.849-9.054-3.744 1.347-2.967 20.536 1.534 29.413 7.298 33.642 21.846.953 3.279 1.488 8.121 1.31 11.864l-.299 6.323zm13.371-24.882c-5.02-11.521-12.108-17.947-25.873-23.454-5.394-2.158-6.8-3.084-5.48-3.608 2.477-.983 14.766.98 19.144 3.058 4.914 2.332 11.082 9.558 13.024 15.26 1.553 4.56 3.246 15.212 2.416 15.212-.228 0-1.682-2.91-3.232-6.467z" style="color-rendering:auto;color:#000;dominant-baseline:auto;fill:#f44336;font-feature-settings:normal;font-variant-alternates:normal;font-variant-caps:normal;font-variant-east-asian:normal;font-variant-ligatures:normal;font-variant-numeric:normal;font-variant-position:normal;font-variation-settings:normal;image-rendering:auto;inline-size:0;isolation:auto;mix-blend-mode:normal;shape-margin:0;shape-padding:0;shape-rendering:auto;solid-color:#000;stop-color:#000;text-decoration-color:#000;text-decoration-line:none;text-decoration-style:solid;text-indent:0;text-orientation:mixed;text-transform:none;white-space:normal" transform="translate(0 .001)"/><path d="M94.58 7.496c-.085-.009-.186-.028-.357.057s-.319.377-.303.54c.03.328.15.375.258.499.434.497 1.427 1.302 3.168 2.654 1.74 1.352 4.196 3.206 7.425 5.627 20.123 15.084 29.828 26.115 33.436 37.824 2.116 6.866 2.271 12.23-.671 18.96s-9.042 14.816-19.467 26.856c-18.07 20.87-24.992 32.99-27.787 48.76-1.357 7.655-1.426 10.628-.426 18.541.653 5.175 1.966 11.528 2.978 14.291.88 2.401 1.386 3.746 2.73 4.781 1.346 1.036 3.376 1.704 7.345 3.037 3.011 1.012 5.263 1.78 6.898 2.207.818.214 1.479.346 2.031.373.552.028 1.038-.04 1.399-.365.36-.325.449-.832.39-1.336-.059-.504-.244-1.077-.53-1.779-.57-1.404-1.556-3.311-2.857-5.865-3.85-7.56-4.541-9.822-4.95-16.201-.48-7.473.617-14.292 4.167-22.525s9.565-17.87 18.904-30.875c13.747-19.142 18.572-27.446 21.217-36.6 2.504-8.666 1.536-18.22-2.697-26.818-6.11-12.412-23.974-27.614-46.584-39.84-2.114-1.143-3.663-1.961-4.625-2.406-.48-.223-.753-.36-1.092-.397zm2.588 2.3c.832.43 1.427.72 2.652 1.382 22.498 12.165 40.254 27.397 46.164 39.402 4.13 8.39 5.063 17.686 2.633 26.098-2.6 8.998-7.337 17.174-21.068 36.295-9.358 13.03-15.41 22.713-19.01 31.062-3.6 8.35-4.736 15.376-4.248 22.986.413 6.44 1.193 9 5.059 16.59 1.301 2.556 2.282 4.465 2.82 5.789.269.662.423 1.18.463 1.52.04.339-.014.429-.067.476-.052.047-.251.129-.68.107-.427-.02-1.041-.134-1.826-.34-1.569-.41-3.82-1.175-6.834-2.187-3.967-1.333-5.94-2.024-7.052-2.88s-1.522-1.937-2.4-4.335c-.936-2.553-2.281-8.963-2.926-14.072-.995-7.878-.933-10.622.418-18.24 2.76-15.578 9.53-27.46 27.559-48.28 10.444-12.063 16.6-20.188 19.627-27.112 3.027-6.924 2.866-12.656.71-19.652-3.703-12.022-13.603-23.199-33.79-38.33-3.228-2.42-5.683-4.273-7.413-5.617-.452-.351-.435-.374-.79-.66zm-8.889 22.212c-1.594-.08-2.825-.056-3.629.264-.202.08-.382.172-.539.334s-.27.44-.23.689c.078.499.43.742.9 1.05.94.62 2.64 1.381 5.346 2.464 13.695 5.48 20.624 11.764 25.602 23.189a101.44 101.44 0 0 0 2.121 4.591c.296.592.55 1.073.754 1.419.101.172.188.31.273.423.043.057.083.108.143.164.06.056.119.17.398.17a.648.648 0 0 0 .59-.43 1.63 1.63 0 0 0 .106-.488c.035-.352.028-.8-.006-1.35-.068-1.097-.252-2.58-.51-4.206-.517-3.254-1.326-7.059-2.123-9.399-2.005-5.885-8.154-13.117-13.283-15.55-2.298-1.091-6.463-2.087-10.42-2.72-1.979-.315-3.898-.535-5.492-.615zm-.05.998c1.542.077 3.434.294 5.384.605 3.901.623 8.07 1.648 10.15 2.635 4.699 2.23 10.886 9.451 12.766 14.97.757 2.219 1.57 6.02 2.08 9.232.255 1.606.436 3.071.5 4.113.007.12-.002.165.002.273-.123-.231-.22-.396-.367-.691-.58-1.16-1.328-2.771-2.1-4.543-5.06-11.617-12.31-18.186-26.144-23.721-2.688-1.075-4.388-1.854-5.17-2.37-.302-.198-.324-.264-.356-.284.023-.012.015-.012.045-.024.434-.172 1.666-.272 3.21-.195zm-23.76 16.96c-.692.01-1.23.047-1.643.12-.207.037-.381.08-.545.152-.164.073-.346.177-.453.413-.107.235-.034.526.074.687.108.161.24.268.396.377.313.218.743.429 1.325.672 1.162.486 2.918 1.076 5.29 1.79 17.495 5.27 27.427 14.388 33.433 30.677l2.244 6.084.969-.149.298-6.324c.18-3.81-.354-8.668-1.33-12.025-2.136-7.347-5.49-12.562-10.914-16.084-5.424-3.522-12.863-5.35-23.172-6.12-2.607-.196-4.59-.288-5.972-.268zm.015 1c1.324-.018 3.29.07 5.883.265 10.227.764 17.496 2.584 22.7 5.964 5.206 3.38 8.406 8.323 10.499 15.523.93 3.2 1.467 8.025 1.293 11.7l-.184 3.865-1.392-3.776c-6.089-16.513-16.38-25.956-34.08-31.287-2.357-.71-4.099-1.299-5.196-1.758-.39-.163-.592-.283-.81-.406.317-.044.712-.082 1.287-.09zm-11.889 22.74c-.93-.027-1.696-.022-2.258.025a3.457 3.457 0 0 0-.71.116.942.942 0 0 0-.311.148.646.646 0 0 0-.258.49c0 .267.116.349.18.414.063.066.121.109.187.155.132.091.292.183.492.289.402.21.96.47 1.647.767 1.373.595 3.255 1.338 5.326 2.094 15.509 5.656 24.672 14.547 28.908 27.984.53 1.68.956 2.83 1.34 3.518.192.343.317.624.738.752a.758.758 0 0 0 .656-.155 1.02 1.02 0 0 0 .274-.445c.227-.632.276-1.624.275-3.203 0-1.58-.085-3.702-.246-6.389-.382-6.36-1.825-11.449-4.482-15.408-2.658-3.959-6.525-6.762-11.648-8.57-1.094-.386-3.031-.763-5.387-1.125-2.356-.362-5.108-.699-7.736-.96s-5.128-.443-6.987-.497zm-.03 1c1.82.053 4.307.236 6.919.494 2.612.259 5.35.593 7.681.951 2.332.359 4.28.753 5.207 1.08 4.968 1.753 8.62 4.417 11.15 8.186 2.53 3.769 3.94 8.667 4.315 14.908.16 2.676.243 4.785.244 6.33 0 1.235-.09 1.828-.174 2.291-.296-.583-.677-1.54-1.156-3.059-4.323-13.713-13.809-22.894-29.518-28.623-2.056-.75-3.927-1.489-5.273-2.072-.431-.187-.7-.322-1.01-.47.46-.019.93-.036 1.615-.016z" style="color-rendering:auto;color:#000;dominant-baseline:auto;fill:#f44336;font-feature-settings:normal;font-variant-alternates:normal;font-variant-caps:normal;font-variant-east-asian:normal;font-variant-ligatures:normal;font-variant-numeric:normal;font-variant-position:normal;font-variation-settings:normal;image-rendering:auto;inline-size:0;isolation:auto;mix-blend-mode:normal;shape-margin:0;shape-padding:0;shape-rendering:auto;solid-color:#000;stop-color:#000;text-decoration-color:#000;text-decoration-line:none;text-decoration-style:solid;text-indent:0;text-orientation:mixed;text-transform:none;white-space:normal" transform="translate(0 .001)"/></g></svg>

<svg viewBox="0 0 200 200" xmlns="http://www.w3.org/2000/svg">
  <path
    d="M103.07 189.451C95.133 186.785 95.066 186.733 93.307 181.934C92.333 179.277 91.005 172.895 90.355 167.754C89.358 159.857 89.424 156.999 90.777 149.362C93.555 133.688 100.4 121.686 118.449 100.842C139.319 76.739 142.959 68.414 138.687 54.552C135.031 42.686 125.229 31.582 105.074 16.474C92.159 6.794 91.616 6.171 100.061 10.738C122.615 22.934 140.426 38.151 146.436 50.359C150.618 58.854 151.566 68.279 149.1 76.817C146.478 85.893 141.698 94.133 127.959 113.265C109.262 139.3 103.826 151.906 104.794 166.988C105.205 173.398 105.941 175.808 109.798 183.384C115.002 193.604 115.119 193.499 103.07 189.451ZM86.279 106.038C81.999 92.463 72.675 83.429 57.066 77.736C52.939 76.231 49.562 74.768 49.562 74.486C49.562 73.459 68.501 75.334 72.542 76.76C82.634 80.32 87.585 87.696 88.341 100.297C88.984 111.023 88.38 112.706 86.278 106.039L86.279 106.038ZM102.818 84.682C96.771 68.281 86.659 59.001 69.062 53.701C59.602 50.852 60.008 49.957 70.409 50.734C90.945 52.268 99.822 58.032 104.051 72.58C105.004 75.859 105.539 80.701 105.361 84.444L105.062 90.767L102.818 84.682ZM116.189 59.8C111.169 48.279 104.081 41.853 90.316 36.346C84.922 34.188 83.516 33.262 84.836 32.738C87.313 31.755 99.602 33.718 103.98 35.796C108.894 38.128 115.062 45.354 117.004 51.056C118.557 55.616 120.25 66.268 119.42 66.268C119.192 66.268 117.738 63.358 116.188 59.801L116.189 59.8Z"
    fill="#F44336"
  />
  <path
    d="M94.58 7.497C94.495 7.488 94.394 7.469 94.223 7.554C94.052 7.639 93.904 7.931 93.92 8.094C93.95 8.422 94.07 8.469 94.178 8.593C94.612 9.09 95.605 9.895 97.346 11.247C99.086 12.599 101.542 14.453 104.771 16.874C124.894 31.958 134.599 42.989 138.207 54.698C140.323 61.564 140.478 66.928 137.536 73.658C134.594 80.388 128.494 88.474 118.069 100.514C99.999 121.384 93.077 133.504 90.282 149.274C88.925 156.929 88.856 159.902 89.856 167.815C90.509 172.99 91.822 179.343 92.834 182.106C93.714 184.507 94.22 185.852 95.564 186.887C96.91 187.923 98.94 188.591 102.909 189.924C105.92 190.936 108.172 191.704 109.807 192.131C110.625 192.345 111.286 192.477 111.838 192.504C112.39 192.532 112.876 192.464 113.237 192.139C113.597 191.814 113.686 191.307 113.627 190.803C113.568 190.299 113.383 189.726 113.097 189.024C112.527 187.62 111.541 185.713 110.24 183.159C106.39 175.599 105.699 173.337 105.29 166.958C104.81 159.485 105.907 152.666 109.457 144.433C113.007 136.2 119.022 126.563 128.361 113.558C142.108 94.416 146.933 86.112 149.578 76.958C152.082 68.292 151.114 58.738 146.881 50.14C140.771 37.728 122.907 22.526 100.297 10.3C98.183 9.157 96.634 8.339 95.672 7.894C95.192 7.671 94.919 7.534 94.58 7.497ZM97.168 9.797C98 10.227 98.595 10.517 99.82 11.179C122.318 23.344 140.074 38.576 145.984 50.581C150.114 58.971 151.047 68.267 148.617 76.679C146.017 85.677 141.28 93.853 127.549 112.974C118.191 126.004 112.139 135.687 108.539 144.036C104.939 152.386 103.803 159.412 104.291 167.022C104.704 173.462 105.484 176.022 109.35 183.612C110.651 186.168 111.632 188.077 112.17 189.401C112.439 190.063 112.593 190.581 112.633 190.921C112.673 191.26 112.619 191.35 112.566 191.397C112.514 191.444 112.315 191.526 111.886 191.504C111.459 191.484 110.845 191.37 110.06 191.164C108.491 190.754 106.24 189.989 103.226 188.977C99.259 187.644 97.286 186.953 96.174 186.097C95.062 185.241 94.652 184.16 93.774 181.762C92.838 179.209 91.493 172.799 90.848 167.69C89.853 159.812 89.915 157.068 91.266 149.45C94.026 133.872 100.796 121.99 118.825 101.17C129.269 89.107 135.425 80.982 138.452 74.058C141.479 67.134 141.318 61.402 139.162 54.406C135.459 42.384 125.559 31.207 105.372 16.076C102.144 13.656 99.689 11.803 97.959 10.459C97.507 10.108 97.524 10.085 97.169 9.799L97.168 9.797ZM88.279 32.009C86.685 31.929 85.454 31.953 84.65 32.273C84.448 32.353 84.268 32.445 84.111 32.607C83.954 32.769 83.841 33.047 83.881 33.296C83.959 33.795 84.311 34.038 84.781 34.346C85.721 34.966 87.421 35.727 90.127 36.81C103.822 42.29 110.751 48.574 115.729 59.999C116.398 61.5467 117.105 63.0775 117.85 64.59C118.146 65.182 118.4 65.663 118.604 66.009C118.705 66.181 118.792 66.319 118.877 66.432C118.92 66.489 118.96 66.54 119.02 66.596C119.08 66.652 119.139 66.766 119.418 66.766C119.548 66.7619 119.674 66.7187 119.779 66.642C119.885 66.5653 119.964 66.4587 120.008 66.336C120.068 66.1797 120.104 66.0151 120.114 65.848C120.149 65.496 120.142 65.048 120.108 64.498C120.04 63.401 119.856 61.918 119.598 60.292C119.081 57.038 118.272 53.233 117.475 50.893C115.47 45.008 109.321 37.776 104.192 35.343C101.894 34.252 97.729 33.256 93.772 32.623C91.793 32.308 89.874 32.088 88.28 32.008L88.279 32.009ZM88.229 33.007C89.771 33.084 91.663 33.301 93.613 33.612C97.514 34.235 101.683 35.26 103.763 36.247C108.462 38.477 114.649 45.698 116.529 51.217C117.286 53.436 118.099 57.237 118.609 60.449C118.864 62.055 119.045 63.52 119.109 64.562C119.116 64.682 119.107 64.727 119.111 64.835C118.988 64.604 118.891 64.439 118.744 64.144C118.164 62.984 117.416 61.373 116.644 59.601C111.584 47.984 104.334 41.415 90.5 35.88C87.812 34.805 86.112 34.026 85.33 33.51C85.028 33.312 85.006 33.246 84.974 33.226C84.997 33.214 84.989 33.214 85.019 33.202C85.453 33.03 86.685 32.93 88.229 33.007ZM64.469 49.967C63.777 49.977 63.239 50.014 62.826 50.087C62.619 50.124 62.445 50.167 62.281 50.239C62.117 50.312 61.935 50.416 61.828 50.652C61.721 50.887 61.794 51.178 61.902 51.339C62.01 51.5 62.142 51.607 62.298 51.716C62.611 51.934 63.041 52.145 63.623 52.388C64.785 52.874 66.541 53.464 68.913 54.178C86.408 59.448 96.34 68.566 102.346 84.855L104.59 90.939L105.559 90.79L105.857 84.466C106.037 80.656 105.503 75.798 104.527 72.441C102.391 65.094 99.037 59.879 93.613 56.357C88.189 52.835 80.75 51.007 70.441 50.237C67.834 50.041 65.851 49.949 64.469 49.969V49.967ZM64.484 50.967C65.808 50.949 67.774 51.037 70.367 51.232C80.594 51.996 87.863 53.816 93.067 57.196C98.273 60.576 101.473 65.519 103.566 72.719C104.496 75.919 105.033 80.744 104.859 84.419L104.675 88.284L103.283 84.508C97.194 67.995 86.903 58.552 69.203 53.221C66.846 52.511 65.104 51.922 64.007 51.463C63.617 51.3 63.415 51.18 63.197 51.057C63.514 51.013 63.909 50.975 64.484 50.967ZM52.595 73.707C51.665 73.68 50.899 73.685 50.337 73.732C50.0969 73.7459 49.859 73.7847 49.627 73.848C49.5151 73.8778 49.4097 73.928 49.316 73.996C49.2393 74.0534 49.1764 74.1272 49.1318 74.212C49.0872 74.2967 49.062 74.3903 49.058 74.486C49.058 74.753 49.174 74.835 49.238 74.9C49.301 74.966 49.359 75.009 49.425 75.055C49.557 75.146 49.717 75.238 49.917 75.344C50.319 75.554 50.877 75.814 51.564 76.111C52.937 76.706 54.819 77.449 56.89 78.205C72.399 83.861 81.562 92.752 85.798 106.189C86.328 107.869 86.754 109.019 87.138 109.707C87.33 110.05 87.455 110.331 87.876 110.459C87.9899 110.486 88.1084 110.485 88.2222 110.458C88.336 110.432 88.442 110.379 88.532 110.304C88.6604 110.182 88.7548 110.029 88.806 109.859C89.033 109.227 89.082 108.235 89.081 106.656C89.081 105.076 88.996 102.954 88.835 100.267C88.453 93.907 87.01 88.818 84.353 84.859C81.695 80.9 77.828 78.097 72.705 76.289C71.611 75.903 69.674 75.526 67.318 75.164C64.962 74.802 62.21 74.465 59.582 74.204C56.954 73.943 54.454 73.761 52.595 73.707ZM52.565 74.707C54.385 74.76 56.872 74.943 59.484 75.201C62.096 75.46 64.834 75.794 67.165 76.152C69.497 76.511 71.445 76.905 72.372 77.232C77.34 78.985 80.992 81.649 83.522 85.418C86.052 89.187 87.462 94.085 87.837 100.326C87.997 103.002 88.08 105.111 88.081 106.656C88.081 107.891 87.991 108.484 87.907 108.947C87.611 108.364 87.23 107.407 86.751 105.888C82.428 92.175 72.942 82.994 57.233 77.265C55.177 76.515 53.306 75.776 51.96 75.193C51.529 75.006 51.26 74.871 50.95 74.723C51.41 74.704 51.88 74.687 52.565 74.707Z"
    fill="#F44336"
  />
</svg>
